packages/calcite-ui-icons/icons/bulldozer-24.svg

<?xml version="1.0" encoding="UTF-8"?><svg id="icons" xmlns="http://www.w3.org/2000/svg" viewBox="0 0 24 24"><defs><style>.cls-1{fill:none;}</style></defs><path d="M1.21094,19.33008c-.26074-.79883-.1377-1.63379.33887-2.29102.47266-.65039,1.22949-1.03906,2.02539-1.03906h12.31641c-.64838-.62561-1.50787-1-2.41699-1H3.5752c-.19543,0-.38507.03699-.5752.0694v-2.0694h-1v-1.85938l.59277-1.14062h13.84863l.55859,1.11816v4.88184h1v-5.11816l-.94141-1.88184h-3.05859v-3h-1v3h-1.52472l-.77313-5H3v1h1v4H1.98535l-.98535,1.89648v3.10352h1v1.38025c-.4917.24945-.92645.61304-1.25879,1.07092-.66699.91992-.84277,2.08203-.48145,3.18848.45215,1.38965,1.86035,2.36035,3.42383,2.36035h9.68262c.97571,0,1.89075-.3783,2.55109-1H3.68359c-1.13672,0-2.15332-.68652-2.47266-1.66992ZM7,5h2.84473l.61914,4h-3.46387v-4ZM5,5h1v4h-1v-4ZM3.16992,18.21387c-.10254.13965-.12109.30273-.05762.49707.0459.14062.28613.28906.57129.28906h7.31641v1H3.68359c-.70801,0-1.33398-.40234-1.52148-.97852-.16309-.49805-.09375-.99414.19824-1.39551.28418-.3916.73828-.62598,1.21484-.62598h5.4248v.95001H3.5752c-.15723,0-.30859.13007-.40527.26385ZM23.95,22l-1.95-2.88184v-6.11816h-3v4h-7v3h7v2h4.95ZM20,14h1v5.43262l1.0918,1.56738h-2.0918v-7ZM13,19v-1h6v1h-6Z"/><rect class="cls-1" width="24" height="24"/></svg>

<svg xmlns="http://www.w3.org/2000/svg" viewBox="0 0 24 24"><path d="M1.21 19.33c-.26-.799-.137-1.634.34-2.29A2.515 2.515 0 0 1 3.575 16h12.317a3.492 3.492 0 0 0-2.417-1h-9.9c-.195 0-.385.037-.575.07V13H2v-1.86L2.593 10H16.44l.56 1.118V16h1v-5.118L17.059 9H14V6h-1v3h-1.525l-.773-5H3v1h1v4H1.985L1 10.896V14h1v1.38c-.492.25-.926.613-1.259 1.071-.667.92-.843 2.082-.481 3.189C.712 21.03 2.12 22 3.684 22h9.682c.976 0 1.891-.378 2.551-1H3.684c-1.137 0-2.154-.687-2.473-1.67zM7 5h2.845l.619 4H7V5zM5 5h1v4H5V5zM3.17 18.214c-.103.14-.121.303-.058.497.046.14.286.289.572.289H11v1H3.684c-.708 0-1.334-.402-1.522-.979A1.509 1.509 0 0 1 3.575 17H9v.95H3.575c-.157 0-.308.13-.405.264zM23.95 22L22 19.118V13h-3v4h-7v3h7v2h4.95zM20 14h1v5.433L22.092 21H20v-7zm-7 5v-1h6v1h-6z"/><path fill="none" d="M0 0h24v24H0z"/></svg>
